X: 39227
T: Tabby Henry
R: waltz
M: 3/4
K: Dmajor
F2 F2 F2|E2 D2 C2|D2 F2 C2|C2 C2 B,2|D2 E2 HD2|
F2 F2 F2|D2 G2 D2|E2 E4|F2 FE HD2||
f2 f2 f2|e2 d2 c2|d2 f2 c2|c2 c2 B2|d2 e2 Hd2|
f2 f2 f2|d2 g2 d2|e2 e4|f2 fe Hd2||
g2 d2 de|G6|F2 D2 F2|D2 G2 G2|F2 D4|
F2 d2 F2|d2 c2 Hc2|B6|A6||

